assets/symbols/mulberry/escalator.svg

<svg height="850.394" viewBox="0 0 850.394 850.394" width="850.394" xmlns="http://www.w3.org/2000/svg"><path d="m336.4 523.76v68.98h-27.77v-69.07zm-27.77-.09v69.07h-15.63v-69.12z" fill="#c8c8c8"/><path d="m479.36 434.82 31.609-38.23 20.63-22.22h-2.27l2.72-3.29h2.851l15.2-18.78 40.74-50.33h-1.66l4.971-6.01 53.54-64.78 2.89-3.49 51.419-62.21 28.18-34.09 29.42 9.81-309.3 374.18c-24.55 27.59-26.53 71.67-2.51 105.9 8.58 12.239 34.35 26 61.44 26.439-24.53-.149-43.801-2.97-59.391-10.2-12.42-5.75-22.52-14.3-31.09-26.52a95.14 95.14 0 0 1 -5.6-9.01l-.02-.17h-.08a92.926 92.926 0 0 1 -4.33-9.08c-9.46-22.82-9.15-47.7.12-68.36 1.23-2.75 2.61-5.42 4.16-8h2.84l19.09-23.26 40.73-49.64h-3.45z" fill="#797878"/><path d="m566.37 232.23h-109.23v69.12h128.772l8.24-10.26v4.87l-4.971 6.01h-172.771v69.11h115.641l-2.72 3.29h-154.061v69.11h-46.07v72.899h83.8a74.865 74.865 0 0 0 -4.16 8l-.84-.379-15.45-.05-28.38-.09-27.77-.101-27.77-.09-15.63-.049v69.12h-2.27v9.08h-40.52v44.64c-26.87-.14-54.23-13.9-71.85-39.02-24.02-34.23-22.04-78.311 2.51-105.891l310.58-375.72 60.55 32.171v4.07h-38.42v69.11h80.841v1.05z" fill="#fff5b4"/><path d="m392.55 592.74h-28.38v-68.88l28.38.09zm-28.38-68.5v68.5h-27.77v-68.98l27.77.1z" fill="#c8c8c8"/><path d="m408.72 592.74h-16.17v-68.79l15.45.05.84.38c-9.27 20.66-9.58 45.54-.12 68.36z" fill="#fff"/><path d="m702 165.48-51.42 62.21v-65.62h47.3zm-51.42-3.4v65.61l-2.89 3.49h-24.88v-69.11h27.77zm-27.77 0v69.1h-28.39v-69.11h28.39zm-28.39.41v68.69h-27.77v-69.11h27.77zm-55.54 0v68.69h-25.3v-69.11h25.3zm27.77 0v68.69h-27.77v-69.11h27.77zm-116.81 475.03-.59 1.24-31.18 12.9-.34-.83-4.58-48.84a95.268 95.268 0 0 0 5.6 9.01c8.57 12.22 18.67 20.77 31.09 26.52z" fill="#c8c8c8"/><path d="m417.73 650.83.34.83-169.07 69.95-175.38-8.04 176.59-62.74h152.22z" fill="#797878"/><path d="m762 142-2 496 .04 4.29-183.73 1.82c-25.399 2.21-47.09 3.67-65.76 3.62-.439 0-.88 0-1.319-.011-27.091-.439-52.86-14.2-61.44-26.439-24.02-34.23-22.04-78.311 2.51-105.9l309.299-374.18z" fill="#abd150"/><path d="m594.15 232.24v-.01h47.29l-47.29 58.86z" fill="#c8c8c8"/><path d="m590.84 301.97-40.74 50.33-.18-.14v-2.7l39.26-47.49z" fill="#fff"/><path d="m549.92 301.97h39.26l-39.26 47.49v-46.46zm16.45-69.73v-.01h27.78v58.86l-8.24 10.26h-19.54z" fill="#c8c8c8"/><path d="m550.1 352.3-15.2 18.78h-2.85l17.87-21.62v2.7z" fill="#fff"/><path d="m549.92 303v46.46l-17.87 21.62h-9.91v-69.11h27.78zm-11.94-70.77h28.39v69.12h-28.39v-68.7z" fill="#c8c8c8"/><path d="m531.6 374.37-20.63 22.22 18.36-22.22z" fill="#fff"/><path d="m529.33 374.37-18.36 22.22-31.61 34.03v-56.25zm-7.19-71.37v68.08h-28.39v-69.11h28.39zm-11.93-70.77h27.77v69.12h-27.77v-68.7zm0 .42v68.7h-27.76v-69.12h27.76zm-16.46 70.76v67.67h-27.76v-69.11h27.76zm-11.3-70.76v68.7h-25.31v-69.12h25.31zm-3.09 143.58v54.39l-11.94 12.86h-16.45v-69.11h28.39z" fill="#c8c8c8"/><path d="m475.66 443.48-40.73 49.64v-4.55l37.28-45.09z" fill="#fff"/><path d="m450.97 443.48h21.24l-37.28 45.09v-45.09zm15.02-140.07v67.67h-27.77v-69.11h27.77zm-15.02 73.23v66.84h-27.77v-69.11h27.77zm-12.75-73.23v67.67h-21.81v-69.11h21.81zm-15.02 140.07h11.729v45.09l-13.659 16.53a74.266 74.266 0 0 0 -8.27 11.28h-6.46v-72.9zm0-66.84v66.84h-27.77v-69.11h27.77zm-10.05 225.35 4.58 48.84h-15.3v-49.01h10.62c.03.06.06.11.1.17z" fill="#c8c8c8"/><path d="m413 516.38c2.39-3.99 5.14-7.77 8.27-11.28l13.66-16.529v4.55l-19.09 23.26h-2.84zm.13 85.44.02.17a1.6 1.6 0 0 1 -.1-.17z" fill="#fff"/><path d="m395.43 443.48h11.11v72.9h-27.77v-72.9zm7 206.94v.41h-27.77v-49.01h27.77zm-7-273.78v66.84h-20.16v-69.11h20.16zm-16.66 67.47v72.27h-27.77v-72.9h27.77zm-4.11 206.31v.41h-27.77v-49.01h27.77zm-23.66-137.2v3.16h-21.8v-72.9h21.8v.63zm-4.11 137.2v.41h-28.39v-49.01h28.39zm-56.16-48.6h27.77v49.01h-27.77zm-27.77 0h27.77v49.01h-27.77zm0 0v49.01h-12.75v-49.01z" fill="#c8c8c8"/><g fill="none"><g stroke="#231f20"><path d="m417.73 650.83h-167.52v-49.01h162.92m-3.3-9.08h-116.83v-69.12l15.63.05 27.77.09 27.77.1 28.38.09 15.45.05m59.42-80.52h8.24m-59.82 72.9h-86.64v-72.9h46.07m92.15 0h-92.15v-69.11h156.33m3.3-3.29h-118.49v-69.11h174.43m-4.93-.62h-128.77v-69.12h184.3" stroke-width="16.54"/><path d="m250.21 650.83-176.59 62.74 175.38 8.04 169.07-69.95 31.18-12.9" stroke-width="16.54"/><path d="m250.21 646.46c-26.87-.14-54.23-13.9-71.85-39.02-24.02-34.23-22.04-78.311 2.51-105.891l310.58-375.72 1.399-1.69m17.701 523.591c18.67.05 40.36-1.41 65.76-3.62l183.73-1.82 1.89-.021m-28.69-514.579-3.061 3.7-28.179 34.09-51.42 62.21-2.89 3.49-53.54 64.78-4.971 6.01-39.26 47.49-17.87 21.62-2.72 3.29-18.36 22.22-31.609 38.23-7.15 8.66-37.28 45.09-13.66 16.53a74.266 74.266 0 0 0 -8.27 11.28 74.865 74.865 0 0 0 -4.16 8c-9.27 20.66-9.58 45.54-.12 68.36 1.26 3.069 2.71 6.1 4.33 9.08.03.06.06.109.1.17a95.268 95.268 0 0 0 5.6 9.01c8.57 12.22 18.67 20.77 31.09 26.52 15.59 7.23 34.86 10.051 59.391 10.2" stroke-width="22.054"/><path d="m762.27 137.97-2.67 3.23-309.3 374.18c-24.55 27.59-26.53 71.67-2.51 105.9 8.58 12.239 34.35 26 61.44 26.439.439.011.88.011 1.319.011" stroke-width="22.054"/><path d="m262.96 598.25v52.58m27.77-69.12v69.12m27.77-52.58v52.58m28.39-58.5v58.09m27.77-58.09v58.09m27.77-69.12v69.12m-93.8-126.18v69.12m27.77-69.12v69.12m27.77-69.12v69.12m28.38-69.53v69.12m-41.55-148.84v69.11m27.77-69.11v69.11m27.77-69.11v69.11m28.39-69.52v49.97m-39.5-117.03v69.12m27.77-69.12v69.12m27.77-69.12v69.12m28.39-69.53v69.12m-41.14-141.94v69.12m27.77-69.12v69.12m27.76-69.12v69.12m28.39-69.53v69.12m27.78-69.12v49.16m-67.47-119.51v69.12m27.76-69.12v69.12m27.77-69.12v69.12m28.39-69.53v69.12m27.78-69.12v69.12" stroke-width="5.513"/><path d="m647.86 231.18h-134.28v-69.11h184.3" stroke-width="16.54"/><path d="m538.88 162.49v69.11m27.77-69.11v69.11m27.77-69.11v69.11m28.39-69.52v69.11m27.77-69.11v69.11" stroke-width="5.513"/></g><path d="m0 0h850.394v850.394h-850.394z"/></g></svg>

<svg xmlns="http://www.w3.org/2000/svg" width="850.394" height="850.394" viewBox="0 0 850.394 850.394" overflow="visible"><path fill="#c8c8c8" d="M336.4 523.76v68.98H308.63v-69.07zM308.63 523.67v69.07H293v-69.12z"/><path d="M479.36 434.82l31.609-38.23 20.63-22.22h-2.27l2.72-3.29h2.851l15.2-18.78 40.74-50.33h-1.66l4.971-6.01 53.54-64.78 2.89-3.49L702 165.48l28.18-34.09 29.42 9.81-309.3 374.18c-24.55 27.59-26.53 71.67-2.51 105.9 8.58 12.239 34.35 26 61.44 26.439-24.53-.149-43.801-2.97-59.391-10.2-12.42-5.75-22.52-14.3-31.09-26.52a95.14 95.14 0 0 1-5.6-9.01l-.02-.17h-.08a92.926 92.926 0 0 1-4.33-9.08c-9.46-22.82-9.15-47.7.12-68.36 1.23-2.75 2.61-5.42 4.16-8h2.84l19.09-23.26 40.73-49.64h-3.45l7.151-8.659z" fill="#797878"/><path d="M566.37 232.23H457.14v69.12h128.772l8.24-10.26v4.87l-4.971 6.01H416.41v69.11h115.641l-2.72 3.29H375.27v69.11H329.2v72.899H413a74.865 74.865 0 0 0-4.16 8L408 524l-15.45-.05-28.38-.09-27.77-.101-27.77-.09-15.63-.049v69.12h-2.27v9.08H250.21v44.64c-26.87-.14-54.23-13.9-71.85-39.02-24.02-34.23-22.04-78.311 2.51-105.891l310.58-375.72L552 158v4.07h-38.42v69.11h80.841v1.05H566.37z" fill="#fff5b4"/><path fill="#c8c8c8" d="M392.55 592.74H364.17v-68.88l28.38.09zM364.17 524.24v68.5H336.4v-68.98l27.77.1z"/><path d="M408.72 592.74h-16.17v-68.79L408 524l.84.38c-9.27 20.66-9.58 45.54-.12 68.36z" fill="#fff"/><path fill="#c8c8c8" d="M702 165.48l-51.42 62.21v-65.62h47.3zM650.58 162.08v65.61l-2.89 3.49h-24.88v-69.11h27.77zM622.81 162.08v69.1h-28.39v-69.11h28.39zM594.42 162.49v68.69h-27.77v-69.11h27.77zM538.88 162.49v68.69h-25.3v-69.11h25.3zM566.65 162.49v68.69h-27.77v-69.11h27.77zM449.84 637.52l-.59 1.24-31.18 12.9-.34-.83-4.58-48.84a95.268 95.268 0 0 0 5.6 9.01c8.57 12.22 18.67 20.77 31.09 26.52z"/><path fill="#797878" d="M417.73 650.83l.34.83L249 721.61l-175.38-8.04 176.59-62.74h152.22z"/><path d="M762 142l-2 496 .04 4.29-183.73 1.82c-25.399 2.21-47.09 3.67-65.76 3.62-.439 0-.88 0-1.319-.011-27.091-.439-52.86-14.2-61.44-26.439-24.02-34.23-22.04-78.311 2.51-105.9L759.6 141.2l2.4.8z" fill="#abd150"/><path fill="#c8c8c8" d="M594.15 232.24v-.01H641.44l-47.29 58.86z"/><path fill="#fff" d="M590.84 301.97L550.1 352.3l-.18-.14v-2.7l39.26-47.49z"/><path fill="#c8c8c8" d="M549.92 301.97h39.26l-39.26 47.49V303zM566.37 232.24v-.01h27.78v58.86l-8.24 10.26h-19.54z"/><path fill="#fff" d="M550.1 352.3l-15.2 18.78h-2.85l17.87-21.62v2.7z"/><path fill="#c8c8c8" d="M549.92 303v46.46l-17.87 21.62h-9.91v-69.11h27.78zM537.98 232.23h28.39v69.12h-28.39v-68.7z"/><path fill="#fff" d="M531.6 374.37l-20.63 22.22 18.36-22.22z"/><path fill="#c8c8c8" d="M529.33 374.37l-18.36 22.22-31.61 34.03v-56.25zM522.14 303v68.08h-28.39v-69.11h28.39zM510.21 232.23h27.77v69.12h-27.77v-68.7zM510.21 232.65v68.7h-27.76v-69.12h27.76zM493.75 303.41v67.67h-27.76v-69.11h27.76zM482.45 232.65v68.7h-25.31v-69.12h25.31zM479.36 376.23v54.39l-11.94 12.86h-16.45v-69.11h28.39z"/><path fill="#fff" d="M475.66 443.48l-40.73 49.64v-4.55l37.28-45.09z"/><path fill="#c8c8c8" d="M450.97 443.48h21.24l-37.28 45.09V443.48zM465.99 303.41v67.67h-27.77v-69.11h27.77zM450.97 376.64v66.84H423.2v-69.11h27.77zM438.22 303.41v67.67h-21.81v-69.11h21.81zM423.2 443.48h11.729V488.57L421.27 505.1a74.266 74.266 0 0 0-8.27 11.28h-6.46V443.48h16.66zM423.2 376.64v66.84h-27.77v-69.11h27.77zM413.15 601.99l4.58 48.84h-15.3v-49.01h10.62c.03.06.06.11.1.17z"/><path d="M413 516.38c2.39-3.99 5.14-7.77 8.27-11.28l13.66-16.529v4.55l-19.09 23.26H413zM413.13 601.82l.02.17a1.6 1.6 0 0 1-.1-.17h.08z" fill="#fff"/><path fill="#c8c8c8" d="M395.43 443.48h11.11V516.38h-27.77V443.48zM402.43 650.42v.41h-27.77v-49.01h27.77zM395.43 376.64v66.84h-20.16v-69.11h20.16zM378.77 444.11v72.27H351V443.48h27.77zM374.66 650.42v.41h-27.77v-49.01h27.77zM351 513.22v3.16h-21.8v-72.9H351v.63zM346.89 650.42v.41H318.5v-49.01h28.39zM290.73 601.82h27.77v49.01h-27.77zM262.96 601.82h27.77v49.01h-27.77zM262.96 601.82v49.01h-12.75v-49.01z"/><g fill="none" stroke="#231f20"><path stroke-width="16.54" d="M417.73 650.83H250.21v-49.01H413.13M409.83 592.74H293v-69.12l15.63.05 27.77.09 27.77.1 28.38.09L408 524M467.42 443.48h8.24M415.84 516.38H329.2v-72.9h46.07M467.42 443.48H375.27v-69.11H531.6M534.9 371.08H416.41v-69.11H590.84M585.91 301.35H457.14v-69.12h184.3"/><path stroke-width="16.54" d="M250.21 650.83L73.62 713.57 249 721.61l169.07-69.95 31.18-12.9"/><path d="M250.21 646.46c-26.87-.14-54.23-13.9-71.85-39.02-24.02-34.23-22.04-78.311 2.51-105.891l310.58-375.72 1.399-1.69M510.55 647.73c18.67.05 40.36-1.41 65.76-3.62l183.73-1.82 1.89-.021M733.24 127.69l-3.061 3.7L702 165.48l-51.42 62.21-2.89 3.49-53.54 64.78-4.971 6.01-39.26 47.49-17.87 21.62-2.72 3.29-18.36 22.22-31.609 38.23-7.15 8.66-37.28 45.09-13.66 16.53a74.266 74.266 0 0 0-8.27 11.28 74.865 74.865 0 0 0-4.16 8c-9.27 20.66-9.58 45.54-.12 68.36 1.26 3.069 2.71 6.1 4.33 9.08.03.06.06.109.1.17a95.268 95.268 0 0 0 5.6 9.01c8.57 12.22 18.67 20.77 31.09 26.52 15.59 7.23 34.86 10.051 59.391 10.2" stroke-width="22.054"/><path d="M762.27 137.97l-2.67 3.23-309.3 374.18c-24.55 27.59-26.53 71.67-2.51 105.9 8.58 12.239 34.35 26 61.44 26.439.439.011.88.011 1.319.011" stroke-width="22.054"/><path stroke-width="5.513" d="M262.96 598.25v52.58M290.73 581.71v69.12M318.5 598.25v52.58M346.89 592.33v58.09M374.66 592.33v58.09M402.43 581.3v69.12M308.63 524.24v69.12M336.4 524.24v69.12M364.17 524.24v69.12M392.55 523.83v69.12M351 444.11v69.11M378.77 444.11v69.11M406.54 444.11v69.11M434.93 443.7V493.67M395.43 376.64v69.12M423.2 376.64v69.12M450.97 376.64v69.12M479.36 376.23v69.12M438.22 303.41v69.12M465.99 303.41v69.12M493.75 303.41v69.12M522.14 303v69.12M549.92 303V352.16M482.45 232.65v69.12M510.21 232.65v69.12M537.98 232.65v69.12M566.37 232.24v69.12M594.15 232.24v69.12"/><path stroke-width="16.54" d="M647.86 231.18H513.58v-69.11h184.3"/><path stroke-width="5.513" d="M538.88 162.49v69.11M566.65 162.49v69.11M594.42 162.49v69.11M622.81 162.08v69.11M650.58 162.08v69.11"/></g><path fill="none" d="M0 0h850.394v850.394H0z"/></svg>
